X: 20522
T: ROYAL CIRCUS
C:
%R: jig
B: Elias Howe "The Musician's Companion" 1843 p.52 #2
S: http://imslp.org/wiki/The_Musician's_Companion_(Howe,_Elias)
Z: 2015 John Chambers <jc:trillian.mit.edu>
M: 6/8
L: 1/8
K: F
% - - - - - - - - - - - - - - - - - - - - - - - - -
F/G/ |\
AFc c>BA | BGd d>cB | AFc c>BA | BGG G2 F/G/ |\
AFc c>BA | BGd d>cB | Acf gae | fff f2 :|
|: e/f/ |\
gec cdc | afd c>dc | .b.a.g .a.g.f | efg c2c |\
dBd dfb | cAc cfa | .b.a.g .a.g.f | cfe f2 :|
% - - - - - - - - - - - - - - - - - - - - - - - - -

%%sep 1 1 500

